Origami/22x22/apps/system-config-samba.svg

<svg width="22" height="22" version="1.1" viewBox="0 0 22 22" xmlns="http://www.w3.org/2000/svg">
 <path d="M 11,1 A 10,10 0 0 0 1,11 10,10 0 0 0 11,21 10,10 0 0 0 21,11 10,10 0 0 0 11,1 Z" style="fill:#48aeff"/>
 <path d="M 1.01075,11.209 A 10,10 0 0 0 1,11.5 10,10 0 0 0 11,21.5 10,10 0 0 0 21,11.5 10,10 0 0 0 20.9895,11.291 10,10 0 0 1 11,21 10,10 0 0 1 1.011,11.209 Z" style="opacity:.2"/>
 <path d="m11 1a10 10 0 0 0 -10 10 10 10 0 0 0 0.01075 0.209 10 10 0 0 1 9.989 -9.709 10 10 0 0 1 9.9895 9.791 10 10 0 0 0 0.0105 -0.291 10 10 0 0 0 -10 -10z" style="fill:#ffffff;opacity:.2"/>
 <path d="m14 6.5c-0.554 0-1 0.446-1 1v5h-1.334961a0.66531265 0.49515172 0 0 0 -0.576172 0.743164l2.334961 3.008789a0.66531265 0.49515172 0 0 0 0.540039 0.24707 0.66531265 0.49515172 0 0 0 0.612305 -0.24707l2.334961-3.008789a0.66531265 0.49515172 0 0 0 -0.576172 -0.743164h-1.334961v-5c0-0.554-0.446-1-1-1zm-6.036133 1e-3a0.66531265 0.49515172 0 0 0 -0.540039 0.2470705l-2.334961 3.0087895a0.66531265 0.49515172 0 0 0 0.576172 0.74314h1.334961v5c0 0.554 0.446 1 1 1s1-0.446 1-1v-5h1.334961a0.66531265 0.49515172 0 0 0 0.576172 -0.743164l-2.334961-3.008789a0.66531265 0.49515172 0 0 0 -0.612305 -0.2470705z" style="opacity:.2"/>
 <g transform="matrix(.5 0 0 .5 -1.0000002 -2)">
  <rect x="16" y="18" width="4" height="18" ry="2" style="fill:#ffffff"/>
  <path d="m17.928561 16.001419a1.3306253 0.99030344 0 0 0 -1.080712 0.493758l-4.669403 6.019141a1.3306253 0.99030344 0 0 0 1.152151 1.485682h9.338807a1.3306253 0.99030344 0 0 0 1.152151 -1.485682l-4.669403-6.019141a1.3306253 0.99030344 0 0 0 -1.223591 -0.493758z" style="fill:#ffffff"/>
 </g>
 <g transform="matrix(.5 0 0 -.5 5 24)">
  <rect x="16" y="18" width="4" height="18" ry="2" style="fill:#ffffff"/>
  <path d="m17.928561 16.001419a1.3306253 0.99030344 0 0 0 -1.080712 0.493758l-4.669403 6.019141a1.3306253 0.99030344 0 0 0 1.152151 1.485682h9.338807a1.3306253 0.99030344 0 0 0 1.152151 -1.485682l-4.669403-6.019141a1.3306253 0.99030344 0 0 0 -1.223591 -0.493758z" style="fill:#ffffff"/>
 </g>
</svg>

<svg xmlns="http://www.w3.org/2000/svg" width="22" height="22" version="1.1" viewBox="0 0 22 22">
 <path style="fill:#48aeff" d="M 11,1 A 10,10 0 0 0 1,11 10,10 0 0 0 11,21 10,10 0 0 0 21,11 10,10 0 0 0 11,1 Z"/>
 <path style="opacity:0.2" d="M 1.01075,11.209 A 10,10 0 0 0 1,11.5 10,10 0 0 0 11,21.5 10,10 0 0 0 21,11.5 10,10 0 0 0 20.9895,11.291 10,10 0 0 1 11,21 10,10 0 0 1 1.011,11.209 Z"/>
 <path style="opacity:0.2;fill:#ffffff" d="m 11,1 a 10,10 0 0 0 -10,10 10,10 0 0 0 0.01075,0.209 10,10 0 0 1 9.989,-9.709 10,10 0 0 1 9.9895,9.791 10,10 0 0 0 0.0105,-0.291 10,10 0 0 0 -10,-10 z"/>
 <path style="opacity:0.2" d="m 14,6.5 c -0.554,0 -1,0.446 -1,1 v 5 h -1.334961 a 0.66531265,0.49515172 0 0 0 -0.576172,0.743164 l 2.334961,3.008789 a 0.66531265,0.49515172 0 0 0 0.540039,0.24707 0.66531265,0.49515172 0 0 0 0.612305,-0.24707 l 2.334961,-3.008789 A 0.66531265,0.49515172 0 0 0 16.334961,12.5 H 15 v -5 c 0,-0.554 -0.446,-1 -1,-1 z M 7.963867,6.501 A 0.66531265,0.49515172 0 0 0 7.423828,6.7480705 L 5.088867,9.75686 A 0.66531265,0.49515172 0 0 0 5.665039,10.5 H 7 v 5 c 0,0.554 0.446,1 1,1 0.554,0 1,-0.446 1,-1 v -5 h 1.334961 A 0.66531265,0.49515172 0 0 0 10.911133,9.756836 L 8.576172,6.748047 A 0.66531265,0.49515172 0 0 0 7.963867,6.5009765 Z"/>
 <g transform="matrix(0.5,0,0,0.5,-1.0000002,-2)">
  <rect style="fill:#ffffff" width="4" height="18" x="16" y="18" ry="2"/>
  <path style="fill:#ffffff" d="m 17.928561,16.001419 a 1.3306253,0.99030344 0 0 0 -1.080712,0.493758 l -4.669403,6.019141 A 1.3306253,0.99030344 0 0 0 13.330597,24 h 9.338807 a 1.3306253,0.99030344 0 0 0 1.152151,-1.485682 l -4.669403,-6.019141 a 1.3306253,0.99030344 0 0 0 -1.223591,-0.493758 z"/>
 </g>
 <g transform="matrix(0.5,0,0,-0.5,5,24)">
  <rect style="fill:#ffffff" width="4" height="18" x="16" y="18" ry="2"/>
  <path style="fill:#ffffff" d="m 17.928561,16.001419 a 1.3306253,0.99030344 0 0 0 -1.080712,0.493758 l -4.669403,6.019141 A 1.3306253,0.99030344 0 0 0 13.330597,24 h 9.338807 a 1.3306253,0.99030344 0 0 0 1.152151,-1.485682 l -4.669403,-6.019141 a 1.3306253,0.99030344 0 0 0 -1.223591,-0.493758 z"/>
 </g>
</svg>
